!!!OTL: HIER TRETEN WIR HER
!!!ARE: Europa, Mitteleuropa, Deutschland, West - Holstein, Ditmarschen
!!!SCT: E1201A
!!!YEM: Copyright 1995, estate of Helmut Schaffrath.
**kern
*ICvox
*Ivox
*M3/4
*k[]
*C:
{4G
=1
4.c
8B
8c
8e
=2
4.d
8c}
{8B
8c
=3
4.d
8B
8c
8A
=4
4G
4r}
{4f
=5
4e
4g
4c
=6
2f}
{4d
=7
4c
4c
4B
=8
2c}
==
!!!AGN: Ansinge -, Brauchtums - Lied, Kirchen - Fest, Heilige drei Koenige
!!!ONB: ESAC (Essen Associative Code) Database: ERK3
!!!AMT: simple triple
!!!AIN: vox
!!!EED: Helmut Schaffrath
!!!EEV: 1.0
*-
